X: 548
T: Abe's Retreat
R: reel
M: 4/4
K: Amixolydian
|:EG|A2AA cAcd|eefde2E2|AAA2B3A|GE2GE2GE|
A2AA cAcd|eefde2ef|a2ae gfed|cA2cA2:|
|:eg|a2a2a2ef|gefde2ge|a2a2ab2a|ge2ge2ge|
a2a2a2ef|gefde2A2|eee2efed|cA2cA2:|

